fs/wifi_off_20_filled.svg

<svg viewBox="0 0 20 20" fill="none" xmlns="http://www.w3.org/2000/svg" height="1em" width="1em">
  <path d="M3.28033 2.21967C2.98744 1.92678 2.51256 1.92678 2.21967 2.21967C1.92678 2.51256 1.92678 2.98744 2.21967 3.28033L5.10888 6.16954C4.47904 6.55379 3.88437 7.01831 3.33957 7.5631C2.95121 7.95147 2.57566 8.41068 2.2354 8.90115C1.99929 9.24149 2.08379 9.70878 2.42413 9.94489C2.76446 10.181 3.23176 10.0965 3.46786 9.75616C3.7597 9.33548 4.07925 8.94475 4.40023 8.62376C4.94926 8.07474 5.55848 7.62258 6.20664 7.2673L7.17221 8.23287C6.56093 8.53596 5.98776 8.94208 5.4786 9.45123C4.99074 9.9391 4.59263 10.4901 4.28669 11.095C4.09973 11.4646 4.24781 11.9158 4.61743 12.1028C4.98705 12.2897 5.43825 12.1416 5.62521 11.772C5.8597 11.3084 6.16418 10.887 6.53927 10.5119C7.05888 9.99229 7.66539 9.61255 8.31203 9.37269L9.59348 10.6541C8.68778 10.7508 7.80792 11.1462 7.11371 11.8404C6.75066 12.2035 6.46166 12.637 6.25315 13.1135C6.08711 13.493 6.26013 13.9353 6.63961 14.1013C7.01908 14.2673 7.46132 14.0943 7.62736 13.7148C7.76299 13.4049 7.94772 13.1278 8.17437 12.9011C9.09351 11.982 10.5237 11.8853 11.5503 12.611L16.7197 17.7803C17.0126 18.0732 17.4874 18.0732 17.7803 17.7803C18.0732 17.4874 18.0732 17.0126 17.7803 16.7197L3.28033 2.21967ZM11.3676 9.2465C12.1593 9.46746 12.9067 9.88926 13.5294 10.5119C13.8877 10.8703 14.2048 11.3145 14.4465 11.7871C14.6352 12.1559 15.087 12.302 15.4558 12.1133C15.8246 11.9247 15.9706 11.4729 15.782 11.1041C15.4709 10.4959 15.0626 9.92383 14.59 9.45123C13.2455 8.10668 11.4545 7.48064 9.69421 7.57312L11.3676 9.2465ZM8.54985 6.42877C11.0504 5.95697 13.7333 6.68864 15.6684 8.62376C16.0063 8.96169 16.3291 9.35229 16.6101 9.75932C16.8453 10.1002 17.3124 10.1858 17.6533 9.95057C17.9942 9.71529 18.0799 9.24819 17.8446 8.90729C17.5132 8.42721 17.1326 7.96669 16.7291 7.5631C14.1795 5.01351 10.5375 4.22202 7.30972 5.18864L8.54985 6.42877ZM10.9214 15.6385C11.4065 15.1533 11.4065 14.3667 10.9214 13.8816C10.4363 13.3964 9.64967 13.3964 9.16453 13.8816C8.67938 14.3667 8.67938 15.1533 9.16453 15.6385C9.64967 16.1236 10.4363 16.1236 10.9214 15.6385Z" fill="#212121"/>
</svg>

<svg viewBox="0 0 20 20" fill="none" xmlns="http://www.w3.org/2000/svg" height="1em" width="1em">
  <path d="M3.28 2.22a.75.75 0 0 0-1.06 1.06l2.889 2.89a9.492 9.492 0 0 0-1.77 1.393 9.842 9.842 0 0 0-1.104 1.338.75.75 0 1 0 1.233.855A8.41 8.41 0 0 1 4.4 8.624a7.971 7.971 0 0 1 1.807-1.357l.965.966A6.436 6.436 0 0 0 5.48 9.45a6.403 6.403 0 0 0-1.192 1.644.75.75 0 0 0 1.338.677c.235-.464.54-.885.914-1.26.52-.52 1.126-.9 1.773-1.14l1.281 1.282a4.113 4.113 0 0 0-2.48 1.186 4.145 4.145 0 0 0-.86 1.274.75.75 0 1 0 1.374.6c.136-.31.32-.586.547-.813a2.631 2.631 0 0 1 3.376-.29l5.17 5.17a.75.75 0 1 0 1.06-1.061L3.28 2.22Zm8.088 7.026a4.92 4.92 0 0 1 2.161 1.266c.359.358.676.803.918 1.275a.75.75 0 1 0 1.335-.683 6.621 6.621 0 0 0-1.192-1.653 6.426 6.426 0 0 0-4.896-1.878l1.674 1.673ZM8.55 6.43a7.96 7.96 0 0 1 8.06 3.33.75.75 0 1 0 1.235-.852A9.466 9.466 0 0 0 7.31 5.188l1.24 1.24Zm2.371 9.21a1.242 1.242 0 1 0-1.757-1.757 1.242 1.242 0 0 0 1.757 1.757Z" fill="#212121"/>
</svg>
